dist/images/facebook-2.svg

<svg width="14" height="24" viewBox="0 0 14 24" fill="none" xmlns="http://www.w3.org/2000/svg">
<path d="M1.32557 12.7824H3.95636V23.6129C3.95636 23.8267 4.12962 24 4.34346 24H8.80405C9.01788 24 9.19115 23.8267 9.19115 23.6129V12.8334H12.2155C12.4121 12.8334 12.5775 12.6859 12.6 12.4905L13.0593 8.50328C13.0719 8.39357 13.0372 8.28372 12.9638 8.20142C12.8903 8.11905 12.7852 8.0719 12.6749 8.0719H9.1913V5.57249C9.1913 4.81905 9.59698 4.43698 10.3972 4.43698C10.5112 4.43698 12.6749 4.43698 12.6749 4.43698C12.8887 4.43698 13.062 4.26364 13.062 4.04988V0.389961C13.062 0.176129 12.8887 0.00286452 12.6749 0.00286452H9.5359C9.51375 0.00178065 9.46459 0 9.39213 0C8.84748 0 6.95435 0.106916 5.45891 1.48266C3.80199 3.0072 4.03231 4.83259 4.08735 5.14908V8.07182H1.32557C1.11174 8.07182 0.938477 8.24508 0.938477 8.45892V12.3952C0.938477 12.6091 1.11174 12.7824 1.32557 12.7824Z" fill="#0094FF"/>
</svg>

<svg width="14" height="24" fill="none" xmlns="http://www.w3.org/2000/svg"><path d="M1.326 12.782h2.63v10.83c0 .215.174.388.387.388h4.461a.387.387 0 00.387-.387v-10.78h3.024a.387.387 0 00.385-.342l.46-3.988a.387.387 0 00-.385-.431H9.19v-2.5c0-.753.406-1.135 1.206-1.135h2.278a.387.387 0 00.387-.387V.39a.387.387 0 00-.387-.387h-3.14A3.078 3.078 0 009.393 0C8.847 0 6.954.107 5.46 1.483c-1.657 1.524-1.427 3.35-1.372 3.666v2.923H1.326a.387.387 0 00-.388.387v3.936c0 .214.174.387.388.387z" fill="#0094FF"/></svg>
